src/images/codepen.svg

<?xml version="1.0" encoding="UTF-8"?>
<svg width="40px" height="40px" viewBox="0 0 40 40" version="1.1" xmlns="http://www.w3.org/2000/svg" xmlns:xlink="http://www.w3.org/1999/xlink">
    <!-- Generator: Sketch 54.1 (76490) - https://sketchapp.com -->
    <title>Group 13</title>
    <desc>Created with Sketch.</desc>
    <defs>
        <polygon id="path-1" points="0 0.0762610526 39.9236034 0.0762610526 39.9236034 39.9157558 0 39.9157558"></polygon>
    </defs>
    <g id="Page-1" stroke="none" stroke-width="1" fill="none" fill-rule="evenodd">
        <g id="Contact" transform="translate(-132.000000, -944.000000)">
            <g id="Social" transform="translate(52.000000, 944.000000)">
                <g id="Group-13" transform="translate(80.000000, 0.000000)">
                    <polygon id="Fill-1" fill="#FEFEFE" points="9.74057384 18.2327579 9.74057384 21.7755789 12.3945823 20.0042105"></polygon>
                    <polygon id="Fill-2" fill="#FEFEFE" points="18.9010127 15.6611705 18.9010127 10.7240758 10.5898734 16.2527495 14.3024473 18.7310653"></polygon>
                    <polygon id="Fill-3" fill="#FEFEFE" points="29.3337975 16.2527411 21.0225738 10.7240674 21.0225738 15.6611621 25.6214768 18.7310568"></polygon>
                    <polygon id="Fill-4" fill="#FEFEFE" points="10.5898481 23.7556211 18.9009873 29.2842947 18.9009873 24.3471158 14.3025063 21.2779789"></polygon>
                    <polygon id="Fill-5" fill="#FEFEFE" points="21.0225485 24.3471495 21.0225485 29.2843284 29.3337722 23.7556547 25.6214515 21.2780126"></polygon>
                    <polygon id="Fill-6" fill="#FEFEFE" points="19.9616793 17.4999832 16.2100338 20.0041516 19.9616793 22.5084042 23.7135781 20.0041516"></polygon>
                    <g id="Group-12" transform="translate(0.000000, 0.008000)">
                        <g id="Group-9">
                            <mask id="mask-2" fill="white">
                                <use xlink:href="#path-1"></use>
                            </mask>
                            <g id="Clip-8"></g>
                            <path d="M32.3042785,23.7489347 C32.3042785,23.7955874 32.3009873,23.8415663 32.294827,23.8875453 C32.2925485,23.9024505 32.2889198,23.9180295 32.2863882,23.9329347 C32.280903,23.9627453 32.2756709,23.9925558 32.2678228,24.0216926 C32.2633502,24.0392084 32.2568523,24.0559663 32.2512827,24.0728926 C32.2428439,24.0987453 32.2344895,24.1247663 32.2241097,24.1507032 C32.2169367,24.1681347 32.2080759,24.1849768 32.2003966,24.2018189 C32.1890042,24.2258189 32.1772743,24.2490611 32.1643629,24.2724716 C32.154827,24.28864 32.1441941,24.3048926 32.1340675,24.3210611 C32.1198059,24.3431242 32.1052911,24.3645137 32.0893418,24.3852295 C32.0776118,24.4013979 32.0656287,24.4163032 32.0527173,24.4312084 C32.0360928,24.4505768 32.0185401,24.4700295 32.0000591,24.4881347 C31.9860506,24.5024505 31.9723797,24.5166821 31.957865,24.5296505 C31.9387089,24.5471663 31.9182869,24.5640084 31.8975274,24.5801768 C31.8818312,24.5925558 31.8663038,24.6048505 31.8496793,24.6164716 C31.8436034,24.6204295 31.8381181,24.6255663 31.8318734,24.62944 L20.55027,32.1349558 C20.3720422,32.2535242 20.1671477,32.3130611 19.9616624,32.3130611 C19.7567679,32.3130611 19.5516203,32.2535242 19.3733924,32.1349558 L8.09145148,24.62944 C8.0855443,24.6255663 8.08005907,24.6204295 8.07423629,24.6164716 C8.05761181,24.6048505 8.04174684,24.5925558 8.02613502,24.5801768 C8.00537553,24.5640084 7.98520675,24.5471663 7.96605063,24.5296505 C7.95145148,24.5166821 7.93752743,24.5024505 7.92351899,24.4881347 C7.90503797,24.4700295 7.88790717,24.4505768 7.87060759,24.4312084 C7.85828692,24.4163032 7.84596624,24.4013979 7.83432068,24.3852295 C7.81870886,24.3645137 7.80377215,24.3431242 7.78976371,24.3210611 C7.77904641,24.3048926 7.76900422,24.28864 7.75929958,24.2724716 C7.7463038,24.2490611 7.73465823,24.2258189 7.72326582,24.2018189 C7.71516456,24.1849768 7.7069789,24.1681347 7.69955274,24.1507032 C7.689173,24.1247663 7.68039662,24.0987453 7.67229536,24.0728926 C7.66647257,24.0559663 7.66064979,24.0392084 7.65575527,24.0216926 C7.64790717,23.9925558 7.64275949,23.9627453 7.63718987,23.9329347 C7.63465823,23.9180295 7.63077637,23.9024505 7.62875105,23.8875453 C7.62259072,23.8415663 7.61904641,23.7955874 7.61904641,23.7489347 L7.61904641,16.2434189 C7.61904641,16.1967663 7.62259072,16.1507874 7.62875105,16.1053979 C7.63077637,16.0899032 7.63465823,16.0749979 7.63718987,16.0594189 C7.64275949,16.0296084 7.64790717,15.9997979 7.65575527,15.9706611 C7.66064979,15.9531453 7.66647257,15.9363032 7.67229536,15.9194611 C7.68039662,15.8935242 7.689173,15.8676716 7.69955274,15.8423242 C7.7069789,15.8248926 7.71516456,15.8073768 7.72326582,15.7905347 C7.73465823,15.7665347 7.7463038,15.7432084 7.75929958,15.7205558 C7.76900422,15.7037137 7.77904641,15.6875453 7.78976371,15.6712926 C7.80377215,15.6493137 7.81870886,15.6279242 7.83432068,15.6071242 C7.84596624,15.5916295 7.85828692,15.5760505 7.87060759,15.5612295 C7.88790717,15.5417768 7.90503797,15.5223242 7.92351899,15.5041347 C7.93752743,15.4899032 7.95145148,15.4756716 7.96605063,15.4627032 C7.98520675,15.4451874 8.00537553,15.4283453 8.02613502,15.4120926 C8.04174684,15.3997979 8.05761181,15.3875032 8.07423629,15.3758821 C8.08005907,15.3719242 8.0855443,15.3667874 8.09145148,15.3629137 L19.3733924,7.85739789 C19.7298481,7.62026105 20.19373,7.62026105 20.55027,7.85739789 L31.8318734,15.3629137 C31.8381181,15.3667874 31.8436034,15.3719242 31.8496793,15.3758821 C31.8663038,15.3875032 31.8818312,15.3997979 31.8975274,15.4120926 C31.9182869,15.4283453 31.9387089,15.4451874 31.957865,15.4627032 C31.9723797,15.4756716 31.9860506,15.4899032 32.0000591,15.5041347 C32.0185401,15.5223242 32.0360928,15.5417768 32.0527173,15.5612295 C32.0656287,15.5760505 32.0776118,15.5916295 32.0893418,15.6071242 C32.1052911,15.6279242 32.1198059,15.6493137 32.1340675,15.6712926 C32.1441941,15.6875453 32.154827,15.7037137 32.1643629,15.7205558 C32.1772743,15.7432084 32.1890042,15.7665347 32.2003966,15.7905347 C32.2080759,15.8073768 32.2169367,15.8248926 32.2241097,15.8423242 C32.2344895,15.8676716 32.2428439,15.8935242 32.2512827,15.9194611 C32.2568523,15.9363032 32.2633502,15.9531453 32.2678228,15.9706611 C32.2756709,15.9997979 32.280903,16.0296084 32.2863882,16.0594189 C32.2889198,16.0749979 32.2925485,16.0899032 32.294827,16.1053979 C32.3009873,16.1507874 32.3042785,16.1967663 32.3042785,16.2434189 L32.3042785,23.7489347 Z M19.9616624,0.0762610526 C8.93744304,0.0762610526 -2.53164557e-05,8.99457684 -2.53164557e-05,19.9961768 C-2.53164557e-05,30.9978611 8.93744304,39.9157558 19.9616624,39.9157558 C30.986557,39.9157558 39.9236034,30.9978611 39.9236034,19.9961768 C39.9236034,8.99457684 30.986557,0.0762610526 19.9616624,0.0762610526 L19.9616624,0.0762610526 Z" id="Fill-7" fill="#FEFEFE" mask="url(#mask-2)"></path>
                        </g>
                        <polygon id="Fill-10" fill="#FEFEFE" points="30.1830295 21.7676042 30.1830295 18.2247832 27.529443 19.9961516"></polygon>
                    </g>
                </g>
            </g>
        </g>
    </g>
</svg>

<svg width="40" height="40" xmlns="http://www.w3.org/2000/svg" xmlns:xlink="http://www.w3.org/1999/xlink"><defs><path id="a" d="M0 .076h39.924v39.84H0z"/></defs><g fill="none" fill-rule="evenodd"><path fill="#FEFEFE" d="M9.74 18.233v3.543l2.655-1.772zM18.901 15.661v-4.937l-8.311 5.529 3.712 2.478zM29.334 16.253l-8.311-5.529v4.937l4.598 3.07zM10.59 23.756l8.311 5.528v-4.937l-4.598-3.069zM21.023 24.347v4.937l8.31-5.528-3.712-2.478zM19.962 17.5l-3.752 2.504 3.752 2.504 3.752-2.504z"/><g transform="translate(0 .008)"><mask id="b" fill="#fff"><use xlink:href="#a"/></mask><path d="M32.304 23.749c0 .047-.003.093-.01.139-.001.014-.005.03-.008.045-.005.03-.01.06-.018.089l-.017.05c-.008.027-.017.053-.027.079-.007.017-.016.034-.024.05a1.294 1.294 0 01-.036.071l-.03.05a.947.947 0 01-.134.166l-.042.042-.06.05-.048.036c-.006.004-.012.01-.018.013L20.55 32.135a1.061 1.061 0 01-1.177 0L8.091 24.629c-.005-.003-.01-.009-.017-.013a.996.996 0 01-.108-.086c-.015-.013-.028-.028-.042-.042a.871.871 0 01-.134-.167 1.236 1.236 0 01-.066-.12c-.009-.016-.017-.033-.024-.05a1.068 1.068 0 01-.028-.078l-.016-.051c-.008-.03-.013-.06-.019-.09l-.008-.044a1.04 1.04 0 01-.01-.14v-7.505c0-.046.004-.092.01-.138l.008-.046c.006-.03.01-.06.019-.088a.952.952 0 01.179-.364l.036-.046c.017-.02.034-.039.053-.057.014-.014.027-.028.042-.041a1.03 1.03 0 01.108-.087l.017-.013 11.282-7.506c.357-.237.82-.237 1.177 0l11.282 7.506.018.013.048.036.06.05.042.042a.906.906 0 01.134.167l.03.05c.013.022.025.046.036.07l.024.051.027.077.017.052c.008.029.013.059.018.088.003.016.007.03.009.046.006.046.01.092.01.138v7.506zM19.962.076C8.937.076 0 8.995 0 19.996c0 11.002 8.937 19.92 19.962 19.92s19.962-8.918 19.962-19.92c0-11.001-8.937-19.92-19.962-19.92z" fill="#FEFEFE" mask="url(#b)"/></g><path fill="#FEFEFE" d="M30.183 21.776v-3.543l-2.654 1.771z"/></g></svg>
